X:14208
T:Resalada, dmelo
M:6&/8
L:1/8
S:Trad
O:Spain
A: Campo de la Lomba, KINGDOM OF LEON
R:Jota
K:Gm
|:ddd ddB|c2-A- ABc|d2 G- GGG|1F3/2D/2-E- D2z:|2F3/2D/2-E- EBB||
GAB- BcA|G3- G2 z|
ddd ddB|c2-A- ABc|d2 G- GGG|F3/2D/2-E- EBB|GAB- BcA|G3-G3-|Gzzz2z|
